X: 2388
M: C
L: 1/8
K: F
(uAB) |\
c>fe>f d>ba>g | (3(fga) f>c (3(ABc) A>F |\
E>FG>A B>cd>c | (3(BAG) (3(AGF) E>dc>B |\
E>dc>B (3(AGF) (3(GFE) | (3(FAc) (3(fcA) F2 ::\
uA2 |\
(3(BAG) (3(AGF) (3(EGB) (3(dcB) | (3(c=Bc) (3(Acf) (3(agf) (3(edc) |\
(3(BAG) (3(AGF) (3(EGB) (3(dcB) |
(3(c=Bc) (3(Acf) (3(agf) (3(edc) |\
(3(d^cd) (3(g^fg) (3(bag) (3(fed) | (3(c=Bc) (3(fef) (3(agf) (3(edc) |\
(3(dfe) (3(dcB) (3(AGF) (3(GFE) | (3(FAc) (3(fcA) F2 :|


